icon/lg/immer.svg

<?xml version="1.0" encoding="UTF-8"?>
<svg viewBox="0 0 512 314" version="1.1" xmlns="http://www.w3.org/2000/svg" xmlns:xlink="http://www.w3.org/1999/xlink" preserveAspectRatio="xMidYMid" height="1em" width="1em">
  <g>
    <path d="M321.348356,0 C349.405152,0 377.461948,17.4267644 389.128042,51.8795393 C384.201047,49.8891728 378.934953,48.870534 373.620607,48.8812565 C367.53022,48.8732147 361.51355,50.2121885 356.000838,52.8030157 C348.025969,35.9244398 333.845445,29.3796859 319.06044,29.3796859 C299.690807,29.3796859 281.481348,49.7816484 261.630578,80.7692435 C264.45966,84.6932699 267.330723,88.7133191 270.235268,92.7144014 L271.519182,94.4784668 C287.808993,116.798431 305.109432,137.997403 322.070785,137.997403 C335.597236,137.997403 339.62488,135.21223 349.472168,124.11711 C356.512838,129.164733 364.959497,131.876188 373.621948,131.866806 C378.464503,131.866806 383.120754,131.035812 387.45533,129.510534 C387.88423,129.497131 388.219309,129.470325 388.447162,129.403309 C376.176586,161.447539 346.046325,179.11556 319.206534,179.11556 C286.430626,179.11556 263.331156,149.647641 240.341446,117.301327 L239.774284,116.503559 C218.645323,150.428517 197.360506,177.655958 166.521969,177.655958 C139.467728,177.655958 112.414827,161.447539 100.065173,129.404649 C100.212607,129.444859 100.413654,129.485068 100.654911,129.511874 C105.08599,131.076021 109.750283,131.872168 114.448084,131.866806 C120.952628,131.876188 127.366031,130.34823 133.166911,127.408921 C141.328084,142.386932 154.814325,148.277613 168.821948,148.277613 C187.218163,148.277613 209.002713,122.957585 225.974418,96.9893993 C202.62786,64.1276031 184.226112,40.3449702 163.831958,39.6598953 C153.73001,39.3248168 144.459058,45.4554136 137.220021,55.6940733 C130.462157,51.2375288 122.542241,48.8691937 114.448084,48.8812565 C110.126911,48.8812565 105.966576,49.5380105 102.046157,50.7684188 C113.83288,17.0528168 141.368293,0 168.902366,0 C201.247005,0 223.787224,29.1172438 247.424831,61.35208 C267.523271,28.6172644 290.401817,0 321.348356,0 Z M115.646552,60.256245 C132.2709,60.256245 145.747597,73.7382666 145.747597,90.3691832 C145.747597,107.0001 132.2709,120.482122 115.646552,120.482122 C99.0222033,120.482122 85.5455062,107.0001 85.5455062,90.3691832 C85.5455062,73.7382666 99.0222033,60.256245 115.646552,60.256245 Z M373.614156,60.256245 C390.238504,60.256245 403.715201,73.7382666 403.715201,90.3691832 C403.715201,107.0001 390.238504,120.482122 373.614156,120.482122 C356.989807,120.482122 343.51311,107.0001 343.51311,90.3691832 C343.51311,73.7382666 356.989807,60.256245 373.614156,60.256245 Z" fill="#00E7C3"/>
    <path d="M375.943372,270.498178 L376.882932,273.586262 C380.37311,284.999037 388.291686,290.907141 401.042094,291.71267 C407.753047,292.114764 410.705759,291.71267 415.671623,289.296084 C419.026429,287.685026 425.547058,281.696503 425.547058,281.696503 L443.319623,293.727162 L438.219728,298.96377 C435.401047,301.78245 429.763686,305.811435 425.737382,307.824586 C416.108565,312.640335 396.668649,314.392126 384.801508,310.376545 C376.078743,307.422492 370.977508,304.334408 365.206115,298.292272 C355.408419,288.221152 351.114052,275.466723 352.187644,259.219435 C354.066764,229.54756 378.896084,209.944126 409.364105,214.239832 C429.495623,217.059853 442.112,230.48712 445.736209,253.043267 C446.540398,257.87778 447.211895,263.784545 447.211895,266.202471 L447.211895,270.498178 L375.943372,270.498178 Z M198.914681,215.448796 L221.730848,215.448796 L221.730848,229.412188 L226.428649,223.907518 C232.334073,216.925822 240.118618,213.837738 251.257969,213.703707 C261.995225,213.703707 268.168712,216.388356 274.745634,223.773487 L279.577466,229.144126 L284.275267,224.310953 C291.791749,216.657759 298.501361,213.837738 309.508021,213.837738 C321.720963,213.837738 328.969382,216.791791 335.544963,224.176921 C343.732942,233.441173 344.270408,236.395225 344.806534,274.929257 L345.34266,309.435644 L321.318869,309.435644 L320.782743,278.956901 C320.379309,252.641173 319.975874,247.673969 317.828691,243.24289 C311.521173,230.353089 294.206995,231.694743 286.959916,245.659476 C284.409298,250.492649 284.141236,253.714764 283.737801,280.299895 L283.201675,309.435644 L259.310576,309.435644 L259.310576,278.956901 C259.310576,252.103707 258.908482,247.673969 256.761298,242.839455 C253.808586,236.259853 248.305257,233.575204 240.118618,234.650136 C233.273634,235.588356 226.696712,242.033927 224.549529,249.956524 C223.74534,252.775204 223.072503,267.142031 223.072503,282.314387 L223.072503,309.435644 L198.914681,309.435644 L198.914681,215.448796 Z M27.1172356,309.435644 L2.96075393,309.435644 L2.96075393,215.448796 L27.1172356,215.448796 L27.1172356,309.435644 Z M455.263162,215.448796 L478.08067,215.448796 L478.08067,230.889215 L481.435476,225.92201 C485.46178,219.879874 494.051853,214.777298 501.835058,213.569675 C507.054241,212.813738 511.61801,213.134073 511.61801,213.134073 L511.634094,235.828272 L505.72867,235.857759 C493.783791,234.918199 483.852063,241.630492 480.899351,252.641173 C480.093822,255.461194 479.422325,269.424586 479.422325,283.656042 L479.422325,309.435644 L455.263162,309.435644 L455.263162,215.448796 Z M40.5391414,215.448796 L63.3553089,215.448796 L63.3553089,229.412188 L68.0531099,223.907518 C73.958534,216.925822 81.7430785,213.837738 92.8824293,213.703707 C103.619686,213.703707 109.794513,216.388356 116.370094,223.773487 L121.201927,229.144126 L125.899728,224.310953 C133.416209,216.657759 140.127162,213.837738 151.132482,213.837738 C163.345424,213.837738 170.593843,216.791791 177.170764,224.176921 C185.357403,233.441173 185.893529,236.395225 186.430995,274.929257 L186.96712,309.435644 L162.94467,309.435644 L162.408545,278.956901 C162.00511,252.641173 161.603016,247.673969 159.454492,243.24289 C153.146974,230.353089 135.832796,231.694743 128.585717,245.659476 C126.035099,250.492649 125.767037,253.714764 125.364942,280.299895 L124.828817,309.435644 L100.937717,309.435644 L100.937717,278.956901 C100.937717,252.103707 100.535623,247.673969 98.3870995,242.839455 C95.4343874,236.259853 89.9310576,233.575204 81.7444188,234.650136 C74.8994346,235.588356 68.3225131,242.033927 66.1753298,249.956524 C65.3711414,252.775204 64.699644,267.142031 64.699644,282.314387 L64.699644,309.435644 L40.5391414,309.435644 L40.5391414,215.448796 L40.5391414,215.448796 Z M421.711079,249.419058 C421.711079,244.18245 417.28134,237.468817 412.047414,234.782827 C399.161634,227.935162 381.043267,235.723728 376.74756,250.089215 L375.943372,253.043267 L421.709738,253.043267 L421.709738,249.419058 L421.711079,249.419058 Z M15.4980524,168.772356 C24.0532775,168.772356 30.997445,175.720545 30.997445,184.27711 C30.997445,192.835016 24.0546178,199.783204 15.4980524,199.783204 C6.94550785,199.783204 0,192.835016 0,184.27711 C0,175.720545 6.94550785,168.773696 15.4980524,168.773696 L15.4980524,168.772356 Z" fill="#000000"/>
  </g>
</svg>

<svg width="512" height="314" xmlns="http://www.w3.org/2000/svg" preserveAspectRatio="xMidYMid"><path d="M321.348 0c28.057 0 56.114 17.427 67.78 51.88a41.18 41.18 0 0 0-15.507-2.999A41.296 41.296 0 0 0 356 52.803c-7.975-16.879-22.156-23.423-36.94-23.423-19.37 0-37.58 20.402-57.43 51.39 2.829 3.923 5.7 7.943 8.604 11.944l1.284 1.764c16.29 22.32 33.59 43.52 50.552 43.52 13.526 0 17.554-2.786 27.401-13.88a41.371 41.371 0 0 0 24.15 7.749 41.6 41.6 0 0 0 13.833-2.356c.43-.014.764-.04.992-.108-12.27 32.045-42.4 49.713-69.24 49.713-32.776 0-55.876-29.468-78.866-61.815l-.567-.797c-21.129 33.925-42.413 61.152-73.252 61.152-27.054 0-54.107-16.208-66.457-48.251.148.04.349.08.59.107a41.294 41.294 0 0 0 13.793 2.355 41.282 41.282 0 0 0 18.719-4.458c8.161 14.978 21.647 20.869 35.655 20.869 18.396 0 40.18-25.32 57.152-51.289-23.346-32.861-41.748-56.644-62.142-57.33-10.102-.334-19.373 5.796-26.612 16.035a41.252 41.252 0 0 0-22.772-6.813 41.32 41.32 0 0 0-12.402 1.887C113.833 17.053 141.368 0 168.902 0c32.345 0 54.885 29.117 78.523 61.352C267.523 28.617 290.402 0 321.348 0ZM115.647 60.256c16.624 0 30.1 13.482 30.1 30.113s-13.476 30.113-30.1 30.113c-16.625 0-30.101-13.482-30.101-30.113 0-16.63 13.476-30.113 30.1-30.113Zm257.967 0c16.625 0 30.101 13.482 30.101 30.113s-13.476 30.113-30.1 30.113c-16.625 0-30.102-13.482-30.102-30.113 0-16.63 13.477-30.113 30.101-30.113Z" fill="#00E7C3"/><path d="m375.943 270.498.94 3.088c3.49 11.413 11.409 17.321 24.16 18.127 6.71.402 9.663 0 14.629-2.417 3.354-1.611 9.875-7.6 9.875-7.6l17.773 12.031-5.1 5.237c-2.819 2.818-8.456 6.847-12.483 8.86-9.628 4.816-29.068 6.568-40.935 2.553-8.723-2.955-13.824-6.043-19.596-12.085-9.798-10.07-14.092-22.825-13.018-39.073 1.879-29.671 26.708-49.275 57.176-44.98 20.132 2.82 32.748 16.248 36.372 38.804.804 4.835 1.476 10.742 1.476 13.16v4.295h-71.269Zm-177.028-55.05h22.816v13.964l4.698-5.504c5.905-6.982 13.69-10.07 24.829-10.204 10.737 0 16.91 2.684 23.488 10.07l4.831 5.37 4.698-4.833c7.517-7.653 14.226-10.473 25.233-10.473 12.213 0 19.461 2.954 26.037 10.339 8.188 9.264 8.725 12.218 9.262 50.752l.536 34.507h-24.024l-.536-30.48c-.404-26.315-.807-31.282-2.954-35.713-6.308-12.89-23.622-11.548-30.87 2.416-2.55 4.834-2.818 8.056-3.221 34.64l-.536 29.137H259.31v-30.48c0-26.852-.403-31.282-2.55-36.117-2.952-6.58-8.456-9.264-16.642-8.189-6.845.938-13.422 7.384-15.57 15.307-.804 2.818-1.476 17.185-1.476 32.357v27.122h-24.158v-93.987ZM27.117 309.437H2.961v-93.987h24.156v93.987Zm428.146-93.987h22.818v15.44l3.354-4.967c4.027-6.042 12.617-11.145 20.4-12.352 5.22-.756 9.783-.436 9.783-.436l.016 22.694-5.905.03c-11.945-.94-21.877 5.772-24.83 16.783-.805 2.82-1.477 16.784-1.477 31.015v25.78h-24.159v-93.987Zm-414.724 0h22.816v13.963l4.698-5.504c5.906-6.982 13.69-10.07 24.83-10.204 10.737 0 16.912 2.684 23.487 10.07l4.832 5.37 4.698-4.833c7.516-7.653 14.227-10.473 25.232-10.473 12.213 0 19.462 2.954 26.039 10.339 8.186 9.264 8.723 12.218 9.26 50.752l.536 34.507h-24.022l-.536-30.48c-.404-26.315-.806-31.282-2.955-35.713-6.307-12.89-23.621-11.548-30.868 2.416-2.55 4.834-2.819 8.056-3.221 34.64l-.536 29.137h-23.891v-30.48c0-26.852-.402-31.282-2.55-36.117-2.954-6.58-8.457-9.264-16.644-8.189-6.845.938-13.421 7.384-15.569 15.307-.804 2.818-1.475 17.185-1.475 32.357v27.122H40.54v-93.987Zm381.172 33.97c0-5.237-4.43-11.95-9.664-14.636-12.885-6.848-31.004.94-35.3 15.306l-.804 2.954h45.767v-3.624h.001ZM15.498 168.772c8.555 0 15.5 6.949 15.5 15.505 0 8.558-6.943 15.506-15.5 15.506C6.946 199.783 0 192.835 0 184.277c0-8.556 6.946-15.503 15.498-15.503v-.002Z"/></svg>
